rospo-icon-theme-classic-common/22x22/apps/com.github.keyilan.swatches.svg

<svg height="22" width="22" xmlns="http://www.w3.org/2000/svg"><path d="m1 15.5v4.5c0 .831.669 1.5 1.5 1.5h16c .831 0 1.5-.669 1.5-1.5v-4.5z" opacity=".2"/><path d="m2.5 1c-.831 0-1.5.669-1.5 1.5v12.55h19v-12.55c0-.831-.669-1.5-1.5-1.5z" fill="#ffbf3f"/><path d="m1 14v5.5c0 .831.669 1.5 1.5 1.5h16c .831 0 1.319731-.688789 1.5-1.5v-5.5z" fill="#e4e4e4"/><rect fill="#4f4f4f" height="1" opacity=".6" rx=".462" ry=".5" width="6" x="2" y="18"/><path d="m2.5 1c-.831 0-1.5.669-1.5 1.5v.5c0-.831.669-1.5 1.5-1.5h16c .831 0 1.5.669 1.5 1.5v-.5c0-.831-.669-1.5-1.5-1.5z" fill="#fff" opacity=".2"/><path d="m1 14v .5h19v-.5z" fill="#fff" opacity=".2"/><rect fill="#4f4f4f" height="1" rx=".5" width="13" x="2" y="16"/><path d="m1 13.5v.5h19v-.5z" opacity=".1"/></svg>

<svg xmlns="http://www.w3.org/2000/svg" width="22" height="22" version="1">
 <path d="M 1,15.5 1,20 c 0,0.831 0.669,1.5 1.5,1.5 l 16,0 c 0.831,0 1.5,-0.669 1.5,-1.5 l 0,-4.5 z" style="opacity:0.2"/>
 <path d="M 2.5,1 C 1.669,1 1,1.669 1,2.5 l 0,12.55 19,0 L 20,2.5 C 20,1.669 19.331,1 18.5,1 Z" style="fill:#ffbf3f"/>
 <path style="fill:#cccccc" d="m 1,14 0,5.5 C 1,20.331 1.669,21 2.5,21 l 16,0 c 0.831,0 1.319731,-0.688789 1.5,-1.5 L 20,14 Z"/>
 <rect width="6" height="1" x="2" y="18" rx=".462" ry=".5" style="opacity:0.6;fill:#4f4f4f"/>
 <path style="opacity:0.2;fill:#ffffff" d="M 2.5,1 C 1.669,1 1,1.669 1,2.5 L 1,3 C 1,2.169 1.669,1.5 2.5,1.5 l 16,0 C 19.331,1.5 20,2.169 20,3 L 20,2.5 C 20,1.669 19.331,1 18.5,1 Z"/>
 <path style="opacity:0.2;fill:#ffffff" d="m 1,14 0,0.5 19,0 0,-0.5 z"/>
 <rect style="fill:#4f4f4f" width="13" height="1" x="2" y="16" rx=".5" ry=".5"/>
 <path d="m 1,13.5 0,0.5 19,0 0,-0.5 z" style="opacity:0.1"/>
</svg>
